img/protection.svg

<svg width="22" height="22" viewBox="0 0 22 22" fill="none" xmlns="http://www.w3.org/2000/svg">
<path fill-rule="evenodd" clip-rule="evenodd" d="M18.7027 4.9349L11.1427 2.2049C11.0505 2.17161 10.9496 2.17161 10.8574 2.2049L3.29737 4.9349C3.13093 4.995 3.02002 5.15298 3.02002 5.32993V10.9999C3.02002 15.4524 5.67915 18.407 10.8912 19.8056C10.9634 19.825 11.0395 19.8247 11.1116 19.8048C16.3219 18.3685 18.98 15.4151 18.98 10.9999V5.32993C18.98 5.15298 18.8691 4.995 18.7027 4.9349ZM8.1005 10.2653C8.26854 10.1054 8.53438 10.112 8.69428 10.28L10.3933 12.0656L13.9612 8.19526C14.1184 8.02471 14.3841 8.01391 14.5547 8.17113C14.7252 8.32835 14.736 8.59406 14.5788 8.76461L10.707 12.9646C10.5424 13.1431 10.2613 13.1453 10.0939 12.9695L8.08576 10.859C7.92586 10.691 7.93246 10.4252 8.1005 10.2653Z" fill="#1565D8"/>
</svg>

<svg width="22" height="22" fill="none" xmlns="http://www.w3.org/2000/svg"><path fill-rule="evenodd" clip-rule="evenodd" d="M18.703 4.935l-7.56-2.73a.42.42 0 00-.286 0l-7.56 2.73a.42.42 0 00-.277.395V11c0 4.452 2.66 7.407 7.871 8.806a.42.42 0 00.22-.001c5.21-1.436 7.869-4.39 7.869-8.805V5.33a.42.42 0 00-.277-.395zM8.1 10.265a.42.42 0 01.593.015l1.7 1.786 3.567-3.87a.42.42 0 01.618.569l-3.872 4.2a.42.42 0 01-.613.005l-2.008-2.111a.42.42 0 01.014-.594z" fill="#1565D8"/></svg>
